.local/share/icons/Gruvbox-Plus-Dark/panel/16/nylas-tray-full.svg

<svg width="16" height="16" version="1.1" xmlns="http://www.w3.org/2000/svg">
  <defs>
    <style id="current-color-scheme" type="text/css">.ColorScheme-Text { color:#ebdbb2; } .ColorScheme-Highlight { color:#458588; } .ColorScheme-NeutralText { color:#fe8019; } .ColorScheme-PositiveText { color:#689d6a; } .ColorScheme-NegativeText { color:#fb4934; }</style>
  </defs>
  <path class="ColorScheme-Text" d="m8 1v2.471l5 3.294v-2.47zm-6 1.419v1.052l5 3.294v-2.469c-1.375-0.8631-2.505-1.732-3.878-2.591-0.4801-0.3038-1.122 0.06418-1.122 0.714zm0 2.698v2.471l5 3.294v-2.47zm6 0v2.471l5 3.294v-2.47zm-6 4.118v2.471l5 3.294v-2.471zm6 0v2.469c1.375 0.863 2.506 1.733 3.878 2.592 0.4731 0.3015 1.122-0.0594 1.122-0.715v-1.052z" fill="currentColor"/>
</svg>

<svg xmlns="http://www.w3.org/2000/svg" width="16" height="16" version="1.1">
 <defs>
  <style id="current-color-scheme" type="text/css">
   .ColorScheme-Text { color:#ebdbb2; } .ColorScheme-Highlight { color:#458588; }
  </style>
 </defs>
 <path style="fill:currentColor;fill-rule:evenodd" class="ColorScheme-Text" d="M 8,1 V 3.4706 L 13,6.7647 V 4.2942 Z M 2.75,1.5952 C 2.336,1.5952 2,1.9641 2,2.4187 V 3.4706 L 7,6.7647 V 4.2958 C 5.6253,3.4327 4.4946,2.5635 3.1221,1.7046 3.0088,1.6329 2.8805,1.5952 2.75,1.5952 Z M 2,5.1177 V 7.5883 L 7,10.882 V 8.4118 Z M 8,5.1177 V 7.5883 L 13,10.882 V 8.4118 Z M 2,9.2353 V 11.706 L 7.25,15 7,12.529 Z M 8,9.2353 V 11.704 C 9.3748,12.567 10.506,13.437 11.878,14.296 11.991,14.368 12.12,14.405 12.25,14.405 12.664,14.405 13,14.036 13,13.581 V 12.529 Z"/>
</svg>
